X: 129
T:Marriage Vow
M:6/8
L:1/8
Q:100
K:C
z d | _B3/2A/2G GAG | AGA G2 F | EDC c2 d | EDC c2 d |
_B3/2A/2G GAG | AGA G F | EDC c2 d | edc c2 z |
z c | (4edef g2 G | GAc _BAG | (4edef g2 G | GA_B c2 c |
(4edef g2 G | GAc _BAG | (4edef g2 G | GA_B c2 z ||
